X: 35782
T: Sally Lennon
R: jig
M: 6/8
K: Gmajor
G2B BAB|gdB gdB|G2B BAG|AFD AFD|
G2B BAB|gdB gdc|~B3 GBd|cAF G2D|
G2B BAB|gdB gdB|G2B BAG|AFD AFD|
G2B BAB|gdB gdc|~B3 GBd|cAF GBd|
|:~g3 bgd|~g3 bgd|~f3 afd|fad afd|
gdg bgd|~g3 b2d|~B3 GBd|cAF G3:|

